static/logos/docker-glyph-color.svg

<svg width="50" height="36" viewBox="0 0 50 36" fill="none" xmlns="http://www.w3.org/2000/svg">
<g clip-path="url(#clip0_1_2976)">
<path d="M49.5069 13.5706C49.3714 13.4627 48.1053 12.505 45.4356 12.505C44.7307 12.5081 44.0274 12.5687 43.3321 12.6862C42.8155 9.13769 39.8874 7.40761 39.7562 7.32999L39.0392 6.91577L38.5677 7.59747C37.9774 8.5132 37.5464 9.52265 37.2932 10.583C36.8153 12.6085 37.1058 14.5111 38.1328 16.1376C36.8927 16.83 34.9035 17.0005 34.5009 17.0155H1.56513C0.704859 17.0167 0.00678875 17.7133 0.00210043 18.5752C-0.0363159 21.4661 0.452529 24.3398 1.44457 27.0548C2.57914 30.036 4.26708 32.232 6.4631 33.576C8.92391 35.086 12.9219 35.9488 17.4539 35.9488C19.5013 35.9552 21.5447 35.7696 23.5575 35.3944C26.3555 34.8796 29.048 33.8999 31.5234 32.4951C33.5631 31.3117 35.3987 29.8061 36.9597 28.0364C39.569 25.0767 41.1235 21.7805 42.2796 18.8513H42.7401C45.5973 18.8513 47.354 17.7058 48.3228 16.7459C48.9666 16.1337 49.4693 15.3879 49.7954 14.5607L50 13.9611L49.5069 13.5706Z" fill="#218BEA"/>
<path d="M4.61974 16.0492H9.03326C9.24613 16.0492 9.41861 15.8763 9.41861 15.6631V11.7241C9.41981 11.5108 9.24823 11.337 9.03543 11.3358C9.03474 11.3358 9.03396 11.3358 9.03326 11.3358H4.61974C4.40687 11.3358 4.23438 11.5087 4.23438 11.7219V15.663C4.23438 15.8763 4.40687 16.0492 4.61974 16.0492Z" fill="#218BEA"/>
<path d="M10.7001 16.0492H15.1136C15.3265 16.0492 15.499 15.8763 15.499 15.6631V11.7241C15.5002 11.5108 15.3286 11.337 15.1157 11.3358C15.115 11.3358 15.1143 11.3358 15.1136 11.3358H10.7C10.486 11.3358 10.3125 11.5096 10.3125 11.7241V15.663C10.3138 15.8767 10.4869 16.0492 10.7001 16.0492Z" fill="#218BEA"/>
<path d="M16.8776 16.0492H21.2911C21.504 16.0492 21.6765 15.8763 21.6765 15.6631V11.7241C21.6778 11.5108 21.506 11.337 21.2933 11.3358C21.2925 11.3358 21.2918 11.3358 21.2911 11.3358H16.8776C16.6647 11.3358 16.4922 11.5087 16.4922 11.7219V15.663C16.4923 15.8763 16.6648 16.0492 16.8776 16.0492Z" fill="#218BEA"/>
<path d="M22.979 16.0492H27.3925C27.6058 16.0492 27.779 15.8767 27.7801 15.6631V11.7241C27.7801 11.5096 27.6065 11.3358 27.3925 11.3358H22.979C22.7662 11.3358 22.5938 11.5087 22.5938 11.7219V15.663C22.5938 15.8763 22.7662 16.0492 22.979 16.0492Z" fill="#218BEA"/>
<path d="M10.7 10.3822H15.1135C15.3267 10.3811 15.4989 10.2075 15.4989 9.99398V6.05504C15.4989 5.84177 15.3263 5.66895 15.1135 5.66895H10.7C10.4869 5.66895 10.3137 5.84143 10.3125 6.05504V9.99398C10.3137 10.208 10.4864 10.3811 10.7 10.3822Z" fill="#218BEA"/>
<path d="M16.8775 10.3822H21.291C21.5041 10.3811 21.6764 10.2075 21.6764 9.99398V6.05504C21.6764 5.84177 21.504 5.66895 21.291 5.66895H16.8775C16.6647 5.66895 16.4922 5.84185 16.4922 6.05504V9.99398C16.4922 10.2075 16.6644 10.3811 16.8775 10.3822Z" fill="#218BEA"/>
<path d="M22.979 10.3822H27.3925C27.6062 10.3811 27.779 10.208 27.7801 9.99398V6.05504C27.779 5.84143 27.6058 5.66895 27.3925 5.66895H22.979C22.7662 5.66895 22.5938 5.84185 22.5938 6.05504V9.99398C22.5938 10.2075 22.7658 10.3811 22.979 10.3822Z" fill="#218BEA"/>
<path d="M22.979 4.71338H27.3925C27.6058 4.71338 27.779 4.54084 27.7801 4.32728V0.386104C27.779 0.172474 27.6058 0 27.3925 0H22.979C22.7662 0 22.5938 0.172825 22.5938 0.386104V4.32721C22.5938 4.54049 22.7662 4.71338 22.979 4.71338Z" fill="#218BEA"/>
<path d="M29.1352 16.0492H33.5487C33.762 16.0492 33.9352 15.8767 33.9363 15.6631V11.7241C33.9363 11.5096 33.7628 11.3358 33.5487 11.3358H29.1352C28.9224 11.3358 28.75 11.5087 28.75 11.7219V15.663C28.75 15.8763 28.9224 16.0492 29.1352 16.0492Z" fill="#218BEA"/>
</g>
<defs>
<clipPath id="clip0_1_2976">
<rect width="50" height="35.9489" fill="white"/>
</clipPath>
</defs>
</svg>

<svg xmlns="http://www.w3.org/2000/svg" width="88.889" height="64" fill="none" viewBox="0 0 50 36"><g fill="#218BEA" clip-path="url(#a)"><path d="M49.507 13.57c-.136-.107-1.402-1.065-4.071-1.065-.705.003-1.409.064-2.104.181-.517-3.548-3.445-5.278-3.576-5.356l-.717-.414-.471.681a9.645 9.645 0 0 0-1.275 2.986c-.478 2.025-.187 3.928.84 5.555-1.24.692-3.23.862-3.632.877H1.565a1.567 1.567 0 0 0-1.563 1.56c-.038 2.891.45 5.765 1.443 8.48 1.134 2.981 2.822 5.177 5.018 6.521 2.46 1.51 6.459 2.373 10.99 2.373 2.048.006 4.092-.18 6.105-.555a25.481 25.481 0 0 0 7.965-2.899 21.912 21.912 0 0 0 5.437-4.459c2.609-2.96 4.163-6.256 5.32-9.185h.46c2.857 0 4.614-1.145 5.583-2.105a6.106 6.106 0 0 0 1.472-2.185l.205-.6-.493-.39Z"/><path d="M4.62 16.05h4.413a.386.386 0 0 0 .386-.387v-3.939a.386.386 0 0 0-.384-.388H4.62a.386.386 0 0 0-.386.386v3.941c0 .213.173.386.386.386ZM10.7 16.05h4.414a.386.386 0 0 0 .385-.387v-3.939a.386.386 0 0 0-.383-.388H10.7a.388.388 0 0 0-.387.388v3.939a.388.388 0 0 0 .387.386ZM16.878 16.05h4.413a.386.386 0 0 0 .386-.387v-3.939a.386.386 0 0 0-.384-.388h-4.415a.386.386 0 0 0-.386.386v3.941c0 .213.173.386.386.386ZM22.979 16.05h4.413a.388.388 0 0 0 .388-.387v-3.939a.388.388 0 0 0-.388-.388H22.98a.386.386 0 0 0-.385.386v3.941c0 .213.172.386.385.386ZM10.7 10.382h4.414a.388.388 0 0 0 .385-.388V6.055a.386.386 0 0 0-.386-.386H10.7a.388.388 0 0 0-.387.386v3.939a.39.39 0 0 0 .387.388ZM16.878 10.382h4.413a.388.388 0 0 0 .385-.388V6.055a.386.386 0 0 0-.385-.386h-4.413a.386.386 0 0 0-.386.386v3.939c0 .213.172.387.386.388ZM22.979 10.382h4.413a.39.39 0 0 0 .388-.388V6.055a.388.388 0 0 0-.388-.386H22.98a.386.386 0 0 0-.385.386v3.939c0 .213.172.387.385.388ZM22.979 4.713h4.413a.388.388 0 0 0 .388-.386V.387A.388.388 0 0 0 27.392 0H22.98a.386.386 0 0 0-.385.386v3.941c0 .213.172.386.385.386ZM29.135 16.05h4.414a.388.388 0 0 0 .387-.387v-3.939a.388.388 0 0 0-.387-.388h-4.414a.386.386 0 0 0-.385.386v3.941c0 .213.172.386.385.386Z"/></g><defs><clipPath id="a"><path fill="#fff" d="M0 0h50v35.949H0z"/></clipPath></defs></svg>
